svgs/solid/user-graduate.svg

<svg xmlns="http://www.w3.org/2000/svg" viewBox="0 0 512 512"><!-- Font Awesome Pro 6.0.0-alpha2 by @fontawesome - https://fontawesome.com License - https://fontawesome.com/license (Commercial License) --><path d="M45.625 79.75L52 81.25V139.75C45 143.875 40 151.25 40 160C40 168.375 44.625 175.375 51.125 179.75L35.5 242C33.75 248.875 37.625 256 43.125 256H84.875C90.375 256 94.25 248.875 92.5 242L76.875 179.75C83.375 175.375 88 168.375 88 160C88 151.25 83 143.875 76 139.75V87.125L128 99.633V160C128 230.75 185.25 288 256 288S384 230.75 384 160V99.617L466.25 79.75C484.5 75.375 484.5 52.75 466.25 48.25L275.875 2.25C262.875 -0.75 249.25 -0.75 236.25 2.25L45.625 48.25C27.5 52.625 27.5 75.375 45.625 79.75ZM359.188 312.812L256 416L152.812 312.812C82.885 335.117 32 400.008 32 477.332C32 496.477 47.523 512 66.664 512H445.336C464.477 512 480 496.477 480 477.332C480 400.008 429.119 335.113 359.188 312.812Z"/></svg>

<svg xmlns="http://www.w3.org/2000/svg" viewBox="0 0 512 512"><!--! Font Awesome Pro 6.0.0-alpha3 by @fontawesome - https://fontawesome.com License - https://fontawesome.com/license (Commercial License) --><path d="M45.63 79.75L52 81.25v58.5C45 143.9 40 151.3 40 160c0 8.375 4.625 15.38 11.12 19.75L35.5 242C33.75 248.9 37.63 256 43.13 256h41.75c5.5 0 9.375-7.125 7.625-13.1L76.88 179.8C83.38 175.4 88 168.4 88 160c0-8.75-5-16.12-12-20.25V87.13L128 99.63l.001 60.37c0 70.75 57.25 128 128 128s127.1-57.25 127.1-128L384 99.62l82.25-19.87c18.25-4.375 18.25-27 0-31.5l-190.4-46c-13-3-26.62-3-39.63 0l-190.6 46C27.5 52.63 27.5 75.38 45.63 79.75zM359.2 312.8l-103.2 103.2l-103.2-103.2c-69.93 22.3-120.8 87.2-120.8 164.5C32 496.5 47.53 512 66.67 512h378.7C464.5 512 480 496.5 480 477.3C480 400 429.1 335.1 359.2 312.8z"/></svg>
